X:4931
T:Paddy Fahys reel (number 11)
O:england
M:4/4
L:1/8
C:Paddy Fahy
K:G
D2 GA ||: _BABd g3d | BG~G2 Bcdc | A=F~F2 Adcd | ^cdBG DGGA |
_BABd ~g2gd | BG~G2 Bcdc | A=F~F2 Adcd |1 ^cdBG DGGA :|
|2 ^cdBG DG~G2 || ~g2fa gfga | bgdg g2dc | BDGB AGFD |
GBAG FDD2 | ~g2fa gfga | bgdg g2dc | BDGB AGFD
|1 GBAF G3 z :||2 GBAF G3 A ||


